static/logos/Skills/Blender.svg

<?xml version="1.0" encoding="UTF-8"?>
<!-- Uploaded to: SVG Repo, www.svgrepo.com, Generator: SVG Repo Mixer Tools -->
<svg width="800px" height="800px" viewBox="0 -24 256 256" version="1.1" xmlns="http://www.w3.org/2000/svg" xmlns:xlink="http://www.w3.org/1999/xlink" preserveAspectRatio="xMidYMid">
    <g>
        <path d="M100.43032,115.194555 C101.361124,98.5893536 109.492492,83.9599162 121.759794,73.5893487 C133.790003,63.4031858 149.98249,57.1773328 167.650214,57.1773328 C185.300375,57.1773328 201.492862,63.4031858 213.531852,73.5893487 C225.790373,83.9599162 233.921741,98.5893536 234.861326,115.176993 C235.792131,132.238816 228.934033,148.088836 216.903824,159.838048 C204.636522,171.789227 187.188328,179.288351 167.650214,179.288351 C148.1121,179.288351 130.62878,171.789227 118.37026,159.838048 C106.331269,148.088836 99.4907342,132.238816 100.43032,115.194555 Z" fill="#FFFFFF">
</path>
        <path d="M133.167672,116.676183 C133.645276,108.155909 137.817552,100.649417 144.112012,95.3281876 C150.284817,90.1015783 158.593324,86.9070386 167.658788,86.9070386 C176.71524,86.9070386 185.023747,90.1015783 191.201058,95.3281876 C197.491012,100.649417 201.663288,108.155909 202.145398,116.667172 C202.623002,125.421743 199.104052,133.554527 192.931246,139.58315 C186.636786,145.715405 177.683965,149.563271 167.658788,149.563271 C157.63361,149.563271 148.662766,145.715405 142.372812,139.58315 C136.195501,133.554527 132.685562,125.421743 133.167672,116.676183 Z" fill="#265787">
</path>
        <path d="M78.4107749,134.179185 C78.4694744,137.520542 79.5350962,144.01361 81.133529,149.084344 C84.4929469,159.817323 90.1913143,169.746571 98.1202631,178.497312 C106.256918,187.491883 116.276472,194.716438 127.849305,199.845871 C140.013649,205.23268 153.193946,207.978011 166.884477,207.955572 C180.552431,207.937373 193.732728,205.137858 205.897072,199.710411 C217.469906,194.531308 227.480429,187.275146 235.603538,178.27606 C243.527971,169.489196 249.217308,159.541887 252.585757,148.808908 C254.279012,143.385977 255.349149,137.881769 255.778107,132.3595 C256.198034,126.918508 256.021935,121.468484 255.249811,116.022976 C253.741685,105.411912 250.070708,95.4555722 244.417494,86.3797254 C239.247423,78.0398801 232.582771,70.7385646 224.658338,64.5931778 L224.676399,64.5796318 L144.705094,3.1754327 C144.632849,3.12124854 144.574149,3.06254903 144.497388,3.01288022 C139.250556,-1.01480899 130.427568,-1.00126295 124.656955,3.03545695 C118.823127,7.11733032 118.154856,13.8677736 123.347505,18.1257455 L123.324928,18.1483222 L156.679794,45.2720095 L55.0167639,45.3803778 L54.8813035,45.3803778 C46.4782434,45.3894085 38.4002883,50.9026468 36.8018556,57.8698267 C35.1582694,64.9679516 40.8656676,70.8559636 49.6028633,70.887571 L49.5893173,70.9191785 L101.118453,70.8198408 L9.16793408,141.399224 C9.05053507,141.485016 8.92410536,141.575323 8.81573704,141.661114 C0.14175613,148.303189 -2.66227414,159.347727 2.80129531,166.337484 C8.34614099,173.444639 20.1357111,173.458186 28.8999989,166.378122 L79.0835616,125.306529 C79.0835616,125.306529 78.3520754,130.851375 78.4107749,134.179185 Z M207.36456,152.74629 C197.024416,163.280594 182.548215,169.254398 166.884477,169.286098 C151.198163,169.313097 136.721962,163.393478 126.381818,152.877235 C121.329145,147.752317 117.61753,141.855274 115.328249,135.574427 C113.084122,129.401948 112.21266,122.85018 112.790624,116.239713 C113.336981,109.778252 115.260519,103.614804 118.330955,98.0383504 C121.347206,92.5567196 125.501325,87.6033843 130.630759,83.4131426 C140.681921,75.2223038 153.478413,70.7882334 166.8619,70.7701166 C180.258934,70.7521106 193.046396,75.1455429 203.106588,83.3092897 C208.226991,87.48147 212.376595,92.4167439 215.392846,97.889344 C218.476828,103.461282 220.38682,109.602153 220.955753,116.081676 C221.524687,122.683112 220.653225,129.22585 218.409098,135.402844 C216.115302,141.701753 212.417233,147.598795 207.36456,152.74629 Z" fill="#EA7600">
</path>
    </g>
</svg>

<svg xmlns="http://www.w3.org/2000/svg" width="800" height="800" preserveAspectRatio="xMidYMid" viewBox="0 -24 256 256"><path fill="#fff" d="M100.43 115.195c.931-16.606 9.062-31.235 21.33-41.606 12.03-10.186 28.222-16.412 45.89-16.412 17.65 0 33.843 6.226 45.882 16.412 12.258 10.37 20.39 25 21.33 41.588.93 17.062-5.928 32.912-17.958 44.661-12.267 11.951-29.716 19.45-49.254 19.45s-37.021-7.499-49.28-19.45c-12.039-11.75-18.88-27.6-17.94-44.643"/><path fill="#265787" d="M133.168 116.676c.477-8.52 4.65-16.027 10.944-21.348 6.173-5.226 14.481-8.421 23.547-8.421 9.056 0 17.365 3.195 23.542 8.421 6.29 5.321 10.462 12.828 10.944 21.34.478 8.754-3.04 16.887-9.214 22.915-6.294 6.132-15.247 9.98-25.272 9.98s-18.996-3.848-25.286-9.98c-6.177-6.028-9.687-14.161-9.205-22.907"/><path fill="#ea7600" d="M78.41 134.18c.06 3.34 1.125 9.834 2.724 14.904 3.359 10.733 9.057 20.663 16.986 29.413 8.137 8.995 18.156 16.22 29.73 21.349 12.164 5.387 25.344 8.132 39.034 8.11 13.668-.019 26.849-2.818 39.013-8.246 11.573-5.179 21.583-12.435 29.707-21.434 7.924-8.787 13.613-18.734 16.982-29.467 1.693-5.423 2.763-10.927 3.192-16.45a75 75 0 0 0-.528-16.336c-1.508-10.611-5.18-20.567-10.833-29.643-5.17-8.34-11.834-15.641-19.759-21.787l.018-.013-79.97-61.405c-.073-.054-.132-.112-.209-.162-5.246-4.028-14.07-4.014-19.84.022-5.834 4.082-6.502 10.833-1.31 15.09l-.022.023 33.355 27.124-101.663.108h-.136c-8.403.01-16.48 5.523-18.08 12.49-1.643 7.098 4.065 12.986 12.802 13.018l-.014.031 51.53-.1L9.167 141.4c-.117.086-.244.176-.352.262-8.674 6.642-11.478 17.687-6.015 24.676 5.545 7.108 17.335 7.121 26.099.041l50.184-41.071s-.732 5.544-.673 8.872m128.955 18.566c-10.34 10.535-24.817 16.508-40.48 16.54-15.687.027-30.163-5.893-40.503-16.409-5.053-5.125-8.764-11.022-11.054-17.303a44.9 44.9 0 0 1-2.537-19.334c.546-6.462 2.47-12.625 5.54-18.202 3.016-5.481 7.17-10.435 12.3-14.625 10.05-8.19 22.847-12.625 36.23-12.643 13.398-.018 26.185 4.376 36.246 12.54 5.12 4.171 9.27 9.107 12.286 14.58a45.7 45.7 0 0 1 5.563 18.192 45 45 0 0 1-2.547 19.32c-2.294 6.3-5.992 12.197-11.044 17.344"/></svg>
